img/icon/stars.svg

<svg width="112" height="19" viewBox="0 0 112 19" fill="none" xmlns="http://www.w3.org/2000/svg">
<g clip-path="url(#clip0_2_299)">
<path d="M8.77126 0.990493C9.10133 0.206497 10.2255 0.206498 10.5556 0.990495L12.5037 5.61778C12.643 5.9483 12.9576 6.17413 13.3187 6.20273L18.3754 6.60323C19.2321 6.67108 19.5795 7.72734 18.9268 8.27973L15.0742 11.54C14.799 11.7729 14.6788 12.1383 14.7628 12.4865L15.9399 17.3613C16.1393 18.1872 15.2298 18.8401 14.4963 18.3975L10.1671 15.7851C9.85788 15.5985 9.46899 15.5985 9.15977 15.7851L4.83054 18.3975C4.09703 18.8401 3.18753 18.1872 3.38695 17.3613L4.56401 12.4865C4.64808 12.1383 4.5279 11.7729 4.25273 11.54L0.40006 8.27973C-0.252692 7.72734 0.0947087 6.67108 0.951457 6.60323L6.00814 6.20273C6.36933 6.17413 6.68396 5.9483 6.82311 5.61778L8.77126 0.990493Z" fill="#42A8DF"/>
<path d="M31.8172 0.990493C32.1472 0.206497 33.2714 0.206498 33.6015 0.990495L35.5496 5.61778C35.6889 5.9483 36.0035 6.17413 36.3646 6.20273L41.4213 6.60323C42.278 6.67108 42.6254 7.72734 41.9727 8.27973L38.1201 11.54C37.8449 11.7729 37.7247 12.1383 37.8087 12.4865L38.9858 17.3613C39.1852 18.1872 38.2757 18.8401 37.5422 18.3975L33.213 15.7851C32.9038 15.5985 32.5149 15.5985 32.2057 15.7851L27.8764 18.3975C27.1429 18.8401 26.2334 18.1872 26.4329 17.3613L27.6099 12.4865C27.694 12.1383 27.5738 11.7729 27.2986 11.54L23.446 8.27973C22.7932 7.72734 23.1406 6.67108 23.9974 6.60323L29.054 6.20273C29.4152 6.17413 29.7299 5.9483 29.869 5.61778L31.8172 0.990493Z" fill="#42A8DF"/>
<path d="M54.8631 0.990737C55.1931 0.206741 56.3173 0.206742 56.6474 0.990739L58.5955 5.61803C58.7348 5.94854 59.0494 6.17437 59.4105 6.20297L64.4672 6.60347C65.3239 6.67133 65.6713 7.72758 65.0186 8.27997L61.166 11.5402C60.8908 11.7732 60.7706 12.1386 60.8546 12.4867L62.0317 17.3615C62.2311 18.1875 61.3216 18.8403 60.5881 18.3977L56.2589 15.7854C55.9497 15.5988 55.5608 15.5988 55.2516 15.7854L50.9223 18.3977C50.1888 18.8403 49.2793 18.1875 49.4788 17.3615L50.6558 12.4867C50.7399 12.1386 50.6197 11.7732 50.3445 11.5402L46.4919 8.27997C45.8391 7.72758 46.1865 6.67133 47.0433 6.60347L52.0999 6.20297C52.4611 6.17437 52.7758 5.94854 52.9149 5.61803L54.8631 0.990737Z" fill="#42A8DF"/>
<path d="M77.9085 0.990493C78.2385 0.206497 79.3627 0.206498 79.6928 0.990495L81.6409 5.61778C81.7802 5.9483 82.0948 6.17413 82.456 6.20273L87.5126 6.60323C88.3693 6.67108 88.7167 7.72734 88.064 8.27973L84.2114 11.54C83.9362 11.7729 83.816 12.1383 83.9001 12.4865L85.0771 17.3613C85.2765 18.1872 84.367 18.8401 83.6335 18.3975L79.3043 15.7851C78.9951 15.5985 78.6062 15.5985 78.297 15.7851L73.9677 18.3975C73.2342 18.8401 72.3247 18.1872 72.5242 17.3613L73.7012 12.4865C73.7853 12.1383 73.6651 11.7729 73.3899 11.54L69.5373 8.27973C68.8845 7.72734 69.2319 6.67108 70.0887 6.60323L75.1453 6.20273C75.5065 6.17413 75.8212 5.9483 75.9603 5.61778L77.9085 0.990493Z" fill="#42A8DF"/>
<path d="M100.954 0.990493C101.284 0.206497 102.408 0.206498 102.738 0.990495L104.686 5.61778C104.826 5.9483 105.14 6.17413 105.501 6.20273L110.558 6.60323C111.415 6.67108 111.762 7.72734 111.109 8.27973L107.257 11.54C106.982 11.7729 106.861 12.1383 106.945 12.4865L108.123 17.3613C108.322 18.1872 107.412 18.8401 106.679 18.3975L102.35 15.7851C102.041 15.5985 101.652 15.5985 101.342 15.7851L97.0132 18.3975C96.2796 18.8401 95.3702 18.1872 95.5696 17.3613L96.7466 12.4865C96.8307 12.1383 96.7105 11.7729 96.4353 11.54L92.5827 8.27973C91.9299 7.72734 92.2773 6.67108 93.1341 6.60323L98.1908 6.20273C98.5519 6.17413 98.8666 5.9483 99.0057 5.61778L100.954 0.990493Z" fill="#42A8DF"/>
</g>
<defs>
<clipPath id="clip0_2_299">
<rect width="111.388" height="18.1379" fill="white" transform="translate(0.0610352 0.402496)"/>
</clipPath>
</defs>
</svg>

<svg xmlns="http://www.w3.org/2000/svg" width="112" height="19" fill="none"><g fill="#42A8DF" clip-path="url(#a)"><path d="M8.771.99c.33-.784 1.454-.784 1.785 0l1.948 4.628c.139.33.454.556.815.585l5.056.4c.857.068 1.204 1.124.552 1.677l-3.853 3.26a.948.948 0 0 0-.311.947l1.177 4.874c.2.826-.71 1.48-1.444 1.037l-4.329-2.613a.976.976 0 0 0-1.007 0l-4.33 2.613c-.733.442-1.642-.21-1.443-1.037l1.177-4.875a.948.948 0 0 0-.311-.946L.4 8.28C-.253 7.727.095 6.67.951 6.603l5.057-.4a.965.965 0 0 0 .815-.585L8.771.99ZM31.817.99c.33-.784 1.454-.784 1.785 0l1.948 4.628c.139.33.454.556.815.585l5.056.4c.857.068 1.204 1.124.552 1.677l-3.853 3.26a.948.948 0 0 0-.311.947l1.177 4.874c.2.826-.71 1.48-1.444 1.037l-4.329-2.613a.976.976 0 0 0-1.007 0l-4.33 2.613c-.733.442-1.643-.21-1.443-1.037l1.177-4.875a.948.948 0 0 0-.311-.946l-3.853-3.26c-.653-.553-.305-1.609.551-1.677l5.057-.4a.965.965 0 0 0 .815-.585L31.817.99ZM54.863.99c.33-.783 1.454-.783 1.784 0l1.949 4.628c.139.33.453.556.815.585l5.056.4c.857.068 1.204 1.125.552 1.677l-3.853 3.26a.948.948 0 0 0-.311.947l1.177 4.874c.2.826-.71 1.48-1.444 1.037l-4.33-2.613a.976.976 0 0 0-1.006 0l-4.33 2.613c-.733.442-1.643-.21-1.443-1.037l1.177-4.874a.948.948 0 0 0-.312-.947l-3.852-3.26c-.653-.552-.305-1.609.551-1.677l5.057-.4a.965.965 0 0 0 .815-.585L54.863.991ZM77.909.99c.33-.784 1.454-.784 1.784 0l1.948 4.628c.14.33.454.556.815.585l5.057.4c.856.068 1.204 1.124.551 1.677l-3.853 3.26a.948.948 0 0 0-.31.947l1.176 4.874c.2.826-.71 1.48-1.444 1.037l-4.329-2.613a.976.976 0 0 0-1.007 0l-4.33 2.613c-.733.442-1.642-.21-1.443-1.037l1.177-4.875a.948.948 0 0 0-.311-.946l-3.853-3.26c-.653-.553-.305-1.609.552-1.677l5.056-.4a.965.965 0 0 0 .815-.585L77.91.99ZM100.954.99c.33-.784 1.454-.784 1.784 0l1.948 4.628c.14.33.454.556.815.585l5.057.4c.857.068 1.204 1.124.551 1.677l-3.852 3.26a.949.949 0 0 0-.312.947l1.178 4.874c.199.826-.711 1.48-1.444 1.037l-4.329-2.613a.977.977 0 0 0-1.008 0l-4.329 2.613c-.733.442-1.643-.21-1.443-1.037l1.177-4.875a.948.948 0 0 0-.312-.946l-3.852-3.26c-.653-.553-.306-1.609.551-1.677l5.057-.4a.965.965 0 0 0 .815-.585L100.954.99Z"/></g><defs><clipPath id="a"><path fill="#fff" d="M.061.402h111.388V18.54H.061z"/></clipPath></defs></svg>
